!!!COM: Monteverdi, Claudio
!!!CDT: 1567/05/15/-1643/11/29/
!!!OTL: Sancta Maria
!!!OTL2: Deh bella e cara
!!!ONM: No. 8
!!!SMS: Musica tolta da i madrigali di Claudio Monteverdi, e d'altri autori, e fatta spirituale
!!!PPR: A. Coppini, ed.
!!!PPP: Milan
!!!PDT: 1607
!!!URL: http://www.jpj.dk/coppini.htm
!!!AIN: contrafacta
**kern	**kern	**kern	**kern	**kern
*staff5	*staff4	*staff3	*staff2	*staff1
*Ivox	*Ivox	*Ivox	*Ivox	*Ivox
!basso	!tenore	!alto	!quinto	!canto
*clefF4	*clefG2	*clefG2	*clefG2	*clefG2
*k[b-]	*k[b-]	*k[b-]	*k[b-]	*k[b-]
*M4/4	*M4/4	*M4/4	*M4/4	*M4/4
*MM120	*MM120	*MM120	*MM120	*MM120
=1-	=1-	=1-	=1-	=1-
[1GG	[1g	[1d	[1b-	[1dd
=2	=2	=2	=2	=2
4GG/]	4g/]	4d/]	4b-\]	4dd\]
8D\	8a/	8d/	8f#/	8a/
8D\	8a/	8d/	8f#/	8a/
2G\	2g/	2d/	2g/	2b-\
=3	=3	=3	=3	=3
2D\	2a/	2d/	2f#/	2a/
4r	4r	4r	4r	4r
4D\	4a/	4d/	4f#/	4a/
=4	=4	=4	=4	=4
4.D\	4.a/	4.d/	4.f#/	4.a/
8D\	8a/	8d/	8f#/	8a/
4D\	4a/	4d/	4f#/	4a/
4G\	4g/	4d/	4g/	4b-\
=5	=5	=5	=5	=5
2F\	2cc\	2f/	2a/	2cc\
4F\	4cc\	4f/	4a/	4cc\
4F\	4cc\	4f/	4a/	4cc\
=6	=6	=6	=6	=6
4.F\	4.cc\	4.f/	4.a/	4.cc\
8F\	8cc\	8f/	8a/	8cc\
4F\	4cc\	4f/	4a/	4cc\
4F\	4a/	4f/	4a/	4dd\
=7	=7	=7	=7	=7
4G\	4b-\	4d/	4g/	4b-\
4.G\	4.b-\	4.d/	4.g/	4.b-\
8G\	8g/	8d/	8g/	8b-\
4GG/	4g/	4d/	4b-\	4dd\
=8	=8	=8	=8	=8
2D\	2a/	2d/	2f#/	2a/
2D\	2a/	2d/	2f#/	2a/
=9	=9	=9	=9	=9
1BB-	1b-	1f	1dd	1ff
=10	=10	=10	=10	=10
4E-\	4g/	4g/	4cc\	4ee-\
4E-\	4g/	4g/	4b-\	4ee-\
2F\	2cc\	2f/	2a/	2cc\
=11	=11	=11	=11	=11
[1B-	[1dd	[1f	4b-\	2.b-\
.	.	.	4cc\	.
.	.	.	4dd\	.
.	.	.	4ee\	4cc\
=12	=12	=12	=12	=12
1B-_	1dd_	4f/]	2ff\	4dd\
.	.	4e/	.	4ee\
.	.	4d/	4ff\	4ff\
.	.	4c/	4ee\	[4gg\
=13	=13	=13	=13	=13
4B-\]	1dd]	[1B-	4dd\	1gg_
4A\	.	.	4cc\	.
4G\	.	.	2b-\	.
4F\	.	.	.	.
=14	=14	=14	=14	=14
2E-\	2r	2B-/]	2g/	4gg\]
.	.	.	.	16ff\LL
.	.	.	.	16ee-\
.	.	.	.	16dd\
.	.	.	.	16cc\JJ
2D\	2dd\	2f/	[2b-\	2b-\
=15	=15	=15	=15	=15
1F	1cc	1f	2b-\]	1cc
.	.	.	2a/	.
=16	=16	=16	=16	=16
1BB-	1dd	1f	1b-	1b-
=17	=17	=17	=17	=17
1r	1r	4b-\	4dd\	4ff\
.	.	4b-\	4b-\	4dd\
.	.	4a/	4cc\	4ee\
.	.	4a/	4a/	4cc\
=18	=18	=18	=18	=18
1r	1r	2g/	2.b-\	2.dd\
.	.	4g/	.	.
.	.	4g/	8a/	8cc\
.	.	.	8g/	8b-\
=19	=19	=19	=19	=19
1r	1r	2f/	2a/	2cc\
.	.	4f/	4a/	4cc\
.	.	4f/	4a/	4cc\
=20	=20	=20	=20	=20
1r	1r	4f/	4a/	4cc\
.	.	4f/	4f/	4a/
.	.	4e-/	4g/	4b-\
.	.	4e-/	4e-/	4g/
=21	=21	=21	=21	=21
1r	1r	4d/	4.f/	4.a/
.	.	4d/	.	.
.	.	.	8d/	8f/
.	.	4c/	8e/	8g/
.	.	.	4.c/	4.e/
.	.	4c/	.	.
=22	=22	=22	=22	=22
1r	1r	2B-/	2d/	2f/
.	.	4B-/	4d/	4f/
.	.	4B-/	4d/	4f/
=23	=23	=23	=23	=23
1r	1r	4B-/	4d/	4f/
.	.	4B-/	4d/	4d/
.	.	4A/	4c/	4e/
.	.	4A/	4c/	4f#/
=24	=24	=24	=24	=24
1r	1r	4G/	4d/	4g/
.	.	4G/	4e/	4a/
.	.	4G/	4f#/	4b-\
.	.	4G/	4g/	4cc\
=25	=25	=25	=25	=25
1r	1r	2d/	2a/	4f#/
.	.	.	.	4f#/
.	.	2d/	2a/	4dd\
.	.	.	.	4dd\
=26	=26	=26	=26	=26
1r	1r	4Bn/	4g/	[1dd
.	.	4B/	4g/	.
.	.	2B/	2g/	.
=27	=27	=27	=27	=27
1r	1r	4c/	4g/	4dd\]
.	.	4c/	4g/	8a/
.	.	.	.	8a/
.	.	2d/	2f#/	2a/
=28	=28	=28	=28	=28
2r	2r	2G/	2g/	2g/
4r	4r	4r	4r	4r
4GG/	4g/	4G/	4B-/	4d/
=29	=29	=29	=29	=29
4GG/	4b-\	4G/	4B-/	4d/
4FF/	4a/	4A/	4c/	4f/
4.BB-/	4.f/	4.B-/	4.d/	4.f/
8BB-/	8f/	8B-/	8d/	8f/
=30	=30	=30	=30	=30
8BB-/	8f/	8B-/	8d/	8f/
8BB-/	8f/	8B-/	8d/	8f/
2BB-/	2f/	2B-/	2d/	2f/
4AA/	4cc\	4c/	4e/	4a/
=31	=31	=31	=31	=31
2D\	2a/	2d/	2f/	2a/
4D\	4a/	4d/	4f/	4a/
[4D\	[4a/	[4d/	[4f/	4a/
=32	=32	=32	=32	=32
4D\]	4a/]	4d/]	4f/]	4a/
4D\	4a/	4d/	4f/	4.a/
4D\	4a/	4d/	4f/	.
.	.	.	.	8a/
8D\	8d/	8d/	8f/	4cc\
8C/	8g/	8e/	8g/	.
=33	=33	=33	=33	=33
2F\	2f/	2f/	2a/	2cc\
2F\	2f/	2f/	2a/	2cc\
=34	=34	=34	=34	=34
1r	4r	4r	4r	4r
.	4g/	4d/	4g/	4b-\
.	4g/	4d/	4g/	4b-\
.	4f/	4f/	4a/	4cc\
=35	=35	=35	=35	=35
1r	2b-\	2f/	2b-\	2dd\
.	4b-\	4f/	4b-\	4dd\
.	8b-\	8f/	8b-\	8dd\
.	8b-\	8f/	8b-\	8dd\
=36	=36	=36	=36	=36
1r	4b-\	4f/	4b-\	4dd\
.	8.b-\	8f/	8b-\	8dd\
.	.	8a/	8cc\	8ee\
.	16a/	.	.	.
.	2dd\	2a/	2dd\	2ff\
=37	=37	=37	=37	=37
1r	4dd\	4.a/	4.dd\	4.ff\
.	4dd\	.	.	.
.	.	8a/	8dd\	8ff\
.	4.dd\	4.a/	4.dd\	4.ff\
.	8dd\	8a/	8dd\	8ff\
=38	=38	=38	=38	=38
1r	4g/	4b-\	4ee\	4.gg\
.	4dd\	4a/	4dd\	.
.	.	.	.	8dd\
.	2a/	2a/	2cc#\	2ee\
=39	=39	=39	=39	=39
1r	1d	1a	1dd	1dd
=40	=40	=40	=40	=40
4r	4r	4r	1r	1r
8D\	8f#/	8A/	.	.
8D\	8f#/	8A/	.	.
[2GG/	[2b-\	[2d/	.	.
=41	=41	=41	=41	=41
2GG/]	4b-\]	2.d/]	1r	1r
.	4a/	.	.	.
4GG/	2g/	.	.	.
4GG/	.	8G/	.	.
.	.	8G/	.	.
=42	=42	=42	=42	=42
2D\	2f#/	2A/	2r	2r
2D\	2f#/	2A/	4r	4r
.	.	.	8f#/	8a/
.	.	.	8f#/	8a/
=43	=43	=43	=43	=43
1r	4r	4r	2.b-\	[1dd
.	4g/	4G/	.	.
.	4g/	4G/	.	.
.	4f/	4A/	4a/	.
=44	=44	=44	=44	=44
1r	4e-/	4.B-/	2g/	4dd\]
.	4e-/	.	.	8g/
.	.	8G/	.	8g/
.	2d/	2d/	2f#/	2a/
=45	=45	=45	=45	=45
2r	2d/	2d/	2f#/	4a/
.	.	.	.	4dd\
4r	2r	4r	4r	[2dd\
4GG/	.	4B-/	4b-\	.
=46	=46	=46	=46	=46
4GG/	1r	4B-/	4b-\	4dd\]
4AA/	.	4c/	4a/	4cc\
4BB-/	.	4.d/	4g/	4b-\
4GG/	.	.	4g/	4b-\
.	.	8G/	.	.
=47	=47	=47	=47	=47
2D\	1r	2A/	2f#/	2a/
2D\	.	2A/	2f#/	2a/
=48	=48	=48	=48	=48
1r	4r	1r	4r	4r
.	4f/	.	4a/	4cc\
.	4f/	.	4a/	4cc\
.	4g/	.	4g/	4b-\
=49	=49	=49	=49	=49
1r	4a/	1r	4f/	4a/
.	4bn\	.	4d/	4a/
.	4cc\	.	4e/	4g/
.	8cc\	.	8e/	8g/
.	8cc\	.	8e/	8g/
=50	=50	=50	=50	=50
1r	4.cc\	1r	4.e/	4.g/
.	8cc\	.	8e/	8a/
.	4.dd\	.	4.d/	4f/
.	.	.	.	4f/
.	8dd\	.	8d/	.
=51	=51	=51	=51	=51
1r	4g/	1r	4Bn/	4d/
.	4.g/	.	4.B/	4.d/
.	8g/	.	8B/	8d/
.	4g/	.	4B/	4e/
=52	=52	=52	=52	=52
1r	2a/	1r	2c#/	2e/
.	2d/	.	2d/	2d/
=53	=53	=53	=53	=53
4r	4r	4r	4r	4r
4BB-/	4f/	4d/	4dd\	4ff\
4BB-/	4f/	4d/	4dd\	4ff\
4C/	4cc\	4e/	4cc\	4ee\
=54	=54	=54	=54	=54
4D\	4a/	4f/	4b-\	4dd\
4E\	4cc\	4g/	4g/	4cc\
4F\	4cc\	4f/	4a/	4cc\
8F\	8cc\	8f/	8a/	8cc\
8F\	8cc\	8f/	8a/	8cc\
=55	=55	=55	=55	=55
4.F\	4.cc\	4.f/	4.a/	4.cc\
8F\	8cc\	8f/	8a/	8dd\
4.G\	4.g/	4.d/	4.g/	4.b-\
8G\	8g/	8d/	8g/	8b-\
=56	=56	=56	=56	=56
4C/	4g/	4c/	4e/	4g/
4.C/	4.g/	4.c/	4.e/	4.g/
8C/	8g/	8c/	8e/	8g/
4C/	4cc\	4e/	4e/	4a/
=57	=57	=57	=57	=57
1D	1a	1d	4f#/	1a
.	.	.	2g/	.
.	.	.	4f#/	.
=58	=58	=58	=58	=58
1GG;	1bn;	1d;	1g;	1g;
==	==	==	==	==
*-	*-	*-	*-	*-
!!!ENC: Craig Stuart Sapp
!!!END: 2004/12/10/
